X:941
T:Galen's arrival
R:Reel
O:Scotland
C:Alasdair Fraser
S:Xerox of uncertain origin
B:?
Z:Transcription, chords:Mike Long
M:C|
L:1/8
K:G
DGA|\
"G"B3A BGdB|"Am"c3B "C"cAec|"G"Bdgd "Am"ecAG|\
"D"FGAB "C"cD"D"BA|"G"B3A BGdB|
"Am"c3B "C"cAec|"G"Bdgd "D"ecAF|"G"G2"D"GF "G"G:|\
|:ABd|\
"G"g2gf gbag|"Bm"f2 fe fddB|
"C"c2cB cedc|"G"Bdgd "D"fgaf|"G"g2gf gbag|\
"Bm"f2fe fddB|"C"c2cB cedc|"G"BG"D"AF "G"G:|
